; HEADER_BLOCK_START
; generated by OrcaSlicer 2.2.0 on 2025-03-15 at 14:52:46
; total layer number: 150
; filament_density: 1.24
; filament_diameter: 1.75
; max_z_height: 30.00
; HEADER_BLOCK_END

; THUMBNAIL_BLOCK_START

;
; THUMBNAIL_BLOCK_END

; THUMBNAIL_BLOCK_START

;
; THUMBNAIL_BLOCK_END

; external perimeters extrusion width = 0.40mm
; perimeters extrusion width = 0.45mm
; infill extrusion width = 0.45mm
; solid infill extrusion width = 0.40mm
; top infill extrusion width = 0.40mm
; first layer extrusion width = 0.50mm

; EXECUTABLE_BLOCK_START
M73 P0 R141
M201 X1000 Y1000 Z100 E10000
M203 X500 Y500 Z10 E60
M204 P1000 R1000 T1000
M205 X10.00 Y10.00 Z0.30 E5.00 ; sets the jerk limits, mm/sec
;TYPE:Custom
; BIQU B1 Start G-code
M117 Getting the bed up to temp!
M140 S60; Set Heat Bed temperature
M190 S60; Wait for Heat Bed temperature
M117 Getting the extruder up to temp!
M104 S220; Set Extruder temperature
G92 E0; Reset Extruder
M117 Homing axes
G28; Home all axes
M109 S220; Wait for Extruder temperature
G1 Z2.0 F3000; Move Z Axis up little to prevent scratching of Heat Bed
G1 X4.1 Y20 Z0.3 F5000.0; Move to start position
M117 Purging
G1 X4.1 Y200.0 Z0.3 F1500.0 E15; Draw the first line
G1 X4.4 Y200.0 Z0.3 F5000.0; Move to side a little
G1 X4.4 Y20 Z0.3 F1500.0 E30; Draw the second line
G92 E0; Reset Extruder
M117 Lets make
G1 Z2.0 F3000; Move Z Axis up little to prevent scratching of Heat Bed
G1 X5 Y20 Z0.3 F5000.0; Move over to prevent blob squish
G90
G21
M83 ; use relative distances for extrusion
; filament start gcode
M106 S0
;LAYER_CHANGE
;Z:0.2
;HEIGHT:0.2
;BEFORE_LAYER_CHANGE
;0.2
G92 E0

G1 E-7 F4200
;_SET_FAN_SPEED_CHANGING_LAYER
M204 S1000
G1 X59.26 Y59.347 F18000
G1 Z.6
G1 Z.2
G1 E7 F4200
;TYPE:Skirt
;WIDTH:0.5
G1 F3000
G1 X60.387 Y58.407 E.05465
G1 X61.388 Y57.845 E.04275
G1 X62.687 Y57.378 E.05142
G1 X63.721 Y57.189 E.03914
G1 X64.5 Y57.144 E.02907
G1 X170.698 Y57.151 E3.95549
G1 X172.424 Y57.408 E.06498
G1 X173.76 Y57.928 E.0534
G1 X174.812 Y58.556 E.04565
G1 X175.653 Y59.26 E.04084
G1 X176.593 Y60.387 E.05465
G1 X177.155 Y61.388 E.04275
G1 X177.622 Y62.687 E.05142
G1 X177.851 Y64.323 E.06151
G1 X177.856 Y170.5 E3.9547
G1 X177.741 Y171.765 E.04731
G1 X177.445 Y172.88 E.04297
G1 X176.86 Y174.162 E.05248
G1 X176.444 Y174.812 E.02876
G1 X175.74 Y175.653 E.04084
G1 X174.613 Y176.593 E.05465
G1 X173.612 Y177.155 E.04275
G1 X172.313 Y177.622 E.05142
G1 X171.279 Y177.811 E.03914
G1 X170.5 Y177.856 E.02907
G1 X64.5 Y177.856 E3.9481
G1 X63.235 Y177.741 E.04731
G1 X62.12 Y177.445 E.04297
G1 X60.838 Y176.86 E.05248
G1 X60.188 Y176.444 E.02876
G1 X59.347 Y175.74 E.04084
G1 X58.407 Y174.613 E.05465
G1 X57.845 Y173.612 E.04275
G1 X57.378 Y172.313 E.05142
G1 X57.189 Y171.279 E.03914
G1 X57.144 Y170.5 E.02907
G1 X57.144 Y64.5 E3.9481
G1 X57.259 Y63.235 E.04731
G1 X57.555 Y62.12 E.04297
G1 X58.14 Y60.838 E.05248
G1 X58.556 Y60.188 E.02876
G1 X59.235 Y59.378 E.03935
G1 X59.584 Y59.672 F18000
G1 F3000
G1 X59.602 Y59.651 E.00103
G1 X60.625 Y58.797 E.04963
G1 X61.554 Y58.271 E.03976
G1 X62.781 Y57.826 E.04862
G1 X63.751 Y57.645 E.03676
G1 X64.5 Y57.601 E.02795
G1 X170.665 Y57.607 E3.95423
G1 X172.323 Y57.854 E.06246
G1 X173.582 Y58.348 E.05037
G1 X174.566 Y58.941 E.04278
G1 X175.349 Y59.602 E.03817
G1 X176.203 Y60.625 E.04963
G1 X176.729 Y61.554 E.03976
G1 X177.174 Y62.781 E.04862
G1 X177.394 Y64.353 E.05913
G1 X177.399 Y170.5 E3.95357
G1 X177.295 Y171.664 E.04354
G1 X177.024 Y172.702 E.03994
G1 X176.476 Y173.916 E.04961
G1 X176.059 Y174.566 E.02876
G1 X175.398 Y175.349 E.03817
G1 X174.375 Y176.203 E.04963
G1 X173.446 Y176.729 E.03976
G1 X172.219 Y177.174 E.04862
G1 X171.249 Y177.355 E.03676
G1 X170.5 Y177.399 E.02795
G1 X64.5 Y177.399 E3.9481
G1 X63.336 Y177.295 E.04354
G1 X62.298 Y177.024 E.03994
G1 X61.084 Y176.476 E.04961
G1 X60.434 Y176.059 E.02876
G1 X59.651 Y175.398 E.03817
G1 X58.797 Y174.375 E.04963
G1 X58.271 Y173.446 E.03976
G1 X57.826 Y172.219 E.04862
G1 X57.645 Y171.249 E.03676
G1 X57.601 Y170.5 E.02795
G1 X57.601 Y64.5 E3.9481
G1 X57.705 Y63.336 E.04354
G1 X57.976 Y62.298 E.03994
G1 X58.524 Y61.084 E.04961
G1 X58.941 Y60.434 E.02876
G1 X59.558 Y59.703 E.03565
; printing object Mini Sumobot Size Checker.stl id:7811887588677804288 copy 0
G1 E-5.6 F4200
;WIPE_START
G1 F3000
G1 X59.602 Y59.651 E-.09484
G1 X60.317 Y59.053 E-1.30516
;WIPE_END
G1 X61.392 Y61.335 Z.6 F18000
G1 Z.2
G1 E7 F4200
;TYPE:Brim
G1 F1800
M73 P0 R140
M73 P0 R140
G1 X61.426 Y61.297 E.00189
G1 X61.919 Y60.886 E.0239
G1 X62.464 Y60.553 E.02378
G1 X63.302 Y60.227 E.0335
G1 X63.929 Y60.096 E.02386
G1 X64.508 Y60.058 E.02159
G1 X170.492 Y60.058 E3.9475
G1 X171.14 Y60.106 E.02422
G1 X171.763 Y60.246 E.02377
G1 X172.606 Y60.603 E.03411
G1 X173.224 Y61 E.02737
G1 X173.703 Y61.426 E.02386
G1 X174.114 Y61.919 E.0239
G1 X174.447 Y62.464 E.02378
G1 X174.773 Y63.302 E.0335
G1 X174.904 Y63.929 E.02386
G1 X174.942 Y64.508 E.02159
G1 X174.942 Y170.492 E3.9475
G1 X174.894 Y171.14 E.02422
G1 X174.754 Y171.763 E.02377
G1 X174.397 Y172.606 E.03411
G1 X174 Y173.224 E.02737
G1 X173.574 Y173.703 E.02386
G1 X173.081 Y174.114 E.0239
G1 X172.536 Y174.447 E.02378
G1 X171.698 Y174.773 E.0335
G1 X171.071 Y174.904 E.02386
G1 X170.492 Y174.942 E.02159
G1 X64.508 Y174.942 E3.9475
G1 X63.86 Y174.894 E.02422
G1 X63.237 Y174.754 E.02377
G1 X62.394 Y174.397 E.03411
G1 X61.776 Y174 E.02737
G1 X61.297 Y173.574 E.02386
G1 X60.886 Y173.081 E.0239
G1 X60.553 Y172.536 E.02378
G1 X60.227 Y171.698 E.0335
G1 X60.096 Y171.071 E.02386
G1 X60.058 Y170.492 E.02159
G1 X60.058 Y64.508 E3.9475
G1 X60.106 Y63.86 E.02422
G1 X60.246 Y63.237 E.02377
G1 X60.603 Y62.394 E.03411
G1 X61 Y61.776 E.02737
G1 X61.366 Y61.365 E.02048
G1 X61.708 Y61.668 F18000
G1 F1800
G1 X61.738 Y61.634 E.00169
G1 X62.194 Y61.253 E.02213
G1 X62.678 Y60.96 E.02108
G1 X63.444 Y60.664 E.03055
G1 X63.982 Y60.552 E.02048
G1 X64.527 Y60.515 E.02036
G1 X170.48 Y60.515 E3.94633
G1 X171.062 Y60.558 E.02176
G1 X171.61 Y60.68 E.0209
G1 X172.381 Y61.005 E.03116
G1 X172.938 Y61.36 E.02461
G1 X173.366 Y61.738 E.02128
G1 X173.747 Y62.194 E.02213
G1 X174.04 Y62.678 E.02108
G1 X174.336 Y63.444 E.03055
G1 X174.448 Y63.982 E.02048
G1 X174.485 Y64.527 E.02036
G1 X174.485 Y170.47 E3.94595
G1 X174.442 Y171.062 E.02214
G1 X174.312 Y171.633 E.02181
G1 X173.985 Y172.402 E.03111
G1 X173.64 Y172.938 E.02375
G1 X173.262 Y173.366 E.02128
G1 X172.806 Y173.747 E.02213
G1 X172.322 Y174.04 E.02108
G1 X171.556 Y174.336 E.03055
G1 X171.018 Y174.448 E.02048
G1 X170.473 Y174.485 E.02036
G1 X64.53 Y174.485 E3.94595
G1 X63.938 Y174.442 E.02214
G1 X63.367 Y174.312 E.02181
G1 X62.598 Y173.985 E.03111
G1 X62.062 Y173.64 E.02375
G1 X61.634 Y173.262 E.02128
G1 X61.253 Y172.806 E.02213
G1 X60.96 Y172.322 E.02108
G1 X60.664 Y171.556 E.03055
G1 X60.552 Y171.018 E.02048
G1 X60.515 Y170.473 E.02036
G1 X60.515 Y64.53 E3.94595
G1 X60.558 Y63.938 E.02214
G1 X60.688 Y63.367 E.02181
G1 X61.015 Y62.598 E.03111
G1 X61.36 Y62.062 E.02375
G1 X61.682 Y61.698 E.0181
G1 X62.025 Y62 F18000
G1 F1800
G1 X62.051 Y61.97 E.00145
G1 X62.452 Y61.633 E.01954
G1 X62.892 Y61.368 E.01912
G1 X63.585 Y61.102 E.02764
G1 X64.054 Y61.005 E.01785
G1 X64.547 Y60.972 E.01842
G1 X170.458 Y60.972 E3.94476
G1 X170.985 Y61.011 E.01971
G1 X171.482 Y61.122 E.01895
G1 X172.178 Y61.417 E.02816
G1 X172.653 Y61.72 E.02099
G1 X173.03 Y62.051 E.01866
G1 X173.367 Y62.452 E.01954
G1 X173.632 Y62.892 E.01912
G1 X173.898 Y63.585 E.02764
G1 X173.995 Y64.054 E.01785
G1 X174.028 Y64.547 E.01842
G1 X174.028 Y170.448 E3.94439
G1 X173.989 Y170.984 E.02004
G1 X173.871 Y171.503 E.01983
G1 X173.573 Y172.197 E.02811
G1 X173.28 Y172.653 E.02018
G1 X172.949 Y173.03 E.01868
G1 X172.548 Y173.367 E.01954
G1 X172.108 Y173.632 E.01912
G1 X171.415 Y173.898 E.02764
G1 X170.946 Y173.995 E.01785
G1 X170.453 Y174.028 E.01842
G1 X64.552 Y174.028 E3.94439
G1 X64.016 Y173.989 E.02004
G1 X63.497 Y173.871 E.01983
G1 X62.803 Y173.573 E.02811
G1 X62.347 Y173.28 E.02018
G1 X61.97 Y172.949 E.01868
G1 X61.633 Y172.548 E.01954
G1 X61.368 Y172.108 E.01912
G1 X61.102 Y171.415 E.02764
G1 X61.005 Y170.946 E.01785
G1 X60.972 Y170.453 E.01842
G1 X60.972 Y64.552 E3.94439
G1 X61.011 Y64.016 E.02004
G1 X61.129 Y63.497 E.01983
G1 X61.427 Y62.803 E.02811
G1 X61.72 Y62.347 E.02018
G1 X61.999 Y62.03 E.01574
G1 X62.343 Y62.33 F18000
G1 F1800
G1 X62.364 Y62.306 E.0012
G1 X62.711 Y62.013 E.01691
G1 X63.105 Y61.776 E.01712
G1 X63.724 Y61.54 E.0247
G1 X64.125 Y61.458 E.01522
G1 X64.567 Y61.429 E.01651
G1 X170.436 Y61.429 E3.9432
G1 X170.908 Y61.464 E.01764
G1 X171.353 Y61.564 E.01699
G1 X171.974 Y61.829 E.02516
G1 X172.369 Y62.081 E.01744
G1 X172.694 Y62.364 E.01606
G1 X172.987 Y62.711 E.01691
G1 X173.224 Y63.105 E.01712
G1 X173.46 Y63.724 E.0247
G1 X173.542 Y64.125 E.01522
G1 X173.571 Y64.567 E.01651
G1 X173.571 Y170.426 E3.94284
G1 X173.533 Y170.927 E.01869
M73 P1 R140
M73 P1 R140
G1 X173.429 Y171.373 E.01706
G1 X173.162 Y171.991 E.02511
G1 X172.92 Y172.368 E.01668
G1 X172.636 Y172.694 E.0161
G1 X172.289 Y172.987 E.01691
G1 X171.895 Y173.224 E.01712
G1 X171.276 Y173.46 E.0247
G1 X170.875 Y173.542 E.01522
G1 X170.433 Y173.571 E.01651
G1 X64.574 Y173.571 E3.94284
G1 X64.073 Y173.533 E.01869
G1 X63.627 Y173.429 E.01706
G1 X63.009 Y173.162 E.02511
G1 X62.632 Y172.92 E.01668
G1 X62.306 Y172.636 E.0161
G1 X62.013 Y172.289 E.01691
G1 X61.776 Y171.895 E.01712
G1 X61.54 Y171.276 E.0247
G1 X61.458 Y170.875 E.01522
G1 X61.429 Y170.433 E.01651
G1 X61.429 Y64.574 E3.94284
G1 X61.467 Y64.073 E.01869
G1 X61.571 Y63.627 E.01706
G1 X61.838 Y63.009 E.02511
G1 X62.08 Y62.632 E.01668
G1 X62.317 Y62.36 E.0134
G1 X62.662 Y62.66 F18000
G1 F1800
G1 X62.679 Y62.64 E.00095
G1 X62.987 Y62.38 E.01504
G1 X63.317 Y62.184 E.01427
G1 X63.863 Y61.978 E.02174
G1 X64.195 Y61.912 E.01261
G1 X64.587 Y61.886 E.01463
G1 X170.414 Y61.886 E3.94166
G1 X170.831 Y61.916 E.01554
M73 P1 R139
M73 P1 R139
G1 X171.223 Y62.006 E.015
G1 X171.77 Y62.241 E.02217
G1 X172.086 Y62.442 E.01396
G1 X172.36 Y62.679 E.01348
G1 X172.62 Y62.987 E.01504
G1 X172.816 Y63.317 E.01427
G1 X173.022 Y63.863 E.02174
G1 X173.088 Y64.195 E.01261
G1 X173.114 Y64.587 E.01463
G1 X173.114 Y170.404 E3.94127
G1 X173.081 Y170.847 E.01654
G1 X172.989 Y171.24 E.01505
G1 X172.751 Y171.785 E.02215
G1 X172.559 Y172.085 E.01325
G1 X172.321 Y172.36 E.01354
G1 X172.013 Y172.62 E.01504
G1 X171.683 Y172.816 E.01427
G1 X171.137 Y173.022 E.02174
G1 X170.805 Y173.088 E.01261
G1 X170.413 Y173.114 E.01463
G1 X64.596 Y173.114 E3.94127
G1 X64.153 Y173.081 E.01654
G1 X63.76 Y172.989 E.01505
G1 X63.215 Y172.751 E.02215
G1 X62.915 Y172.559 E.01325
G1 X62.64 Y172.321 E.01354
G1 X62.38 Y172.013 E.01504
G1 X62.184 Y171.683 E.01427
G1 X61.978 Y171.137 E.02174
G1 X61.912 Y170.805 E.01261
G1 X61.886 Y170.413 E.01463
G1 X61.886 Y64.596 E3.94127
G1 X61.919 Y64.153 E.01654
G1 X62.011 Y63.76 E.01505
G1 X62.249 Y63.215 E.02215
G1 X62.441 Y62.915 E.01325
G1 X62.636 Y62.69 E.0111
G1 X62.98 Y63.008 F18000
G1 F1800
G1 X63.342 Y62.708 E.01749
G1 X63.685 Y62.523 E.01453
G1 X64.053 Y62.404 E.0144
G1 X64.536 Y62.343 E.01815
G1 X170.459 Y62.343 E3.94524
G1 X170.908 Y62.399 E.01686
G1 X171.267 Y62.503 E.01391
G1 X171.638 Y62.698 E.01561
G1 X171.992 Y62.98 E.01685
G1 X172.292 Y63.342 E.01749
G1 X172.477 Y63.685 E.01453
G1 X172.596 Y64.053 E.0144
G1 X172.657 Y64.536 E.01815
G1 X172.657 Y170.468 E3.94556
G1 X172.613 Y170.852 E.01438
G1 X172.466 Y171.334 E.01877
G1 X172.294 Y171.652 E.01349
G1 X172.019 Y171.993 E.0163
G1 X171.658 Y172.292 E.01745
G1 X171.315 Y172.477 E.01452
G1 X170.947 Y172.596 E.0144
G1 X170.464 Y172.657 E.01815
G1 X64.532 Y172.657 E3.94556
G1 X64.148 Y172.613 E.01438
G1 X63.666 Y172.466 E.01877
G1 X63.348 Y172.294 E.01349
G1 X63.007 Y172.019 E.0163
G1 X62.708 Y171.658 E.01745
G1 X62.523 Y171.315 E.01452
G1 X62.404 Y170.947 E.0144
G1 X62.343 Y170.464 E.01815
G1 X62.343 Y64.541 E3.94524
G1 X62.399 Y64.092 E.01686
G1 X62.503 Y63.733 E.01391
G1 X62.698 Y63.362 E.01561
G1 X62.955 Y63.039 E.01536
G1 X63.306 Y63.33 F18000
G1 F1800
G1 X63.339 Y63.291 E.00192
G1 X63.631 Y63.062 E.01381
G1 X63.898 Y62.927 E.01117
G1 X64.192 Y62.839 E.01142
G1 X64.527 Y62.8 E.01257
G1 X170.468 Y62.8 E3.94587
G1 X170.856 Y62.853 E.01458
G1 X171.142 Y62.943 E.01116
G1 X171.422 Y63.1 E.01199
G1 X171.709 Y63.339 E.01391
G1 X171.938 Y63.631 E.01381
G1 X172.073 Y63.898 E.01117
G1 X172.161 Y64.192 E.01142
G1 X172.2 Y64.527 E.01257
G1 X172.2 Y170.476 E3.94617
G1 X172.159 Y170.806 E.01241
G1 X172.029 Y171.202 E.01549
G1 X171.896 Y171.427 E.00975
G1 X171.661 Y171.71 E.0137
G1 X171.369 Y171.938 E.01379
G1 X171.102 Y172.073 E.01117
G1 X170.808 Y172.161 E.01142
G1 X170.473 Y172.2 E.01257
G1 X64.524 Y172.2 E3.94617
G1 X64.194 Y172.159 E.01241
G1 X63.798 Y172.029 E.01549
G1 X63.573 Y171.896 E.00975
G1 X63.29 Y171.661 E.0137
G1 X63.062 Y171.369 E.01379
G1 X62.927 Y171.102 E.01117
G1 X62.839 Y170.808 E.01142
G1 X62.8 Y170.473 E.01257
G1 X62.8 Y64.532 E3.94587
G1 X62.853 Y64.144 E.01458
G1 X62.943 Y63.858 E.01116
G1 X63.1 Y63.578 E.01199
G1 X63.28 Y63.361 E.0105
G1 X63.632 Y63.653 F18000
G1 F1800
G1 X63.696 Y63.575 E.00374
G1 X63.903 Y63.429 E.00943
G1 X64.1 Y63.337 E.00811
G1 X64.242 Y63.294 E.00551
G1 X64.519 Y63.257 E.01044
G1 X170.477 Y63.257 E3.94652
G1 X170.795 Y63.306 E.01198
G1 X171.003 Y63.378 E.00819
G1 X171.121 Y63.444 E.00504
G1 X171.425 Y63.696 E.0147
G1 X171.571 Y63.903 E.00943
G1 X171.663 Y64.1 E.0081
G1 X171.706 Y64.242 E.00551
G1 X171.743 Y64.519 E.01044
G1 X171.743 Y170.484 E3.94679
G1 X171.724 Y170.666 E.00679
G1 X171.63 Y170.98 E.01222
G1 X171.552 Y171.126 E.00617
G1 X171.304 Y171.424 E.01445
G1 X171.097 Y171.571 E.00943
G1 X170.9 Y171.663 E.0081
G1 X170.758 Y171.706 E.00551
G1 X170.481 Y171.743 E.01044
G1 X64.516 Y171.743 E3.94679
G1 X64.334 Y171.724 E.00679
G1 X64.02 Y171.63 E.01222
G1 X63.874 Y171.552 E.00617
G1 X63.576 Y171.304 E.01445
G1 X63.429 Y171.097 E.00943
G1 X63.337 Y170.9 E.00811
G1 X63.294 Y170.758 E.00551
G1 X63.257 Y170.481 E.01044
G1 X63.257 Y64.523 E3.94652
G1 X63.306 Y64.205 E.01198
G1 X63.378 Y63.997 E.00819
G1 X63.444 Y63.879 E.00504
G1 X63.607 Y63.684 E.00947
G1 X63.962 Y63.953 F18000
G1 F1800
G1 X63.973 Y63.939 E.00068
G1 X64.086 Y63.848 E.00541
G1 X64.303 Y63.746 E.00892
G1 X64.511 Y63.714 E.00781
G1 X170.488 Y63.714 E3.94724
G1 X170.721 Y63.757 E.00884
M73 P1 R138
M73 P1 R138
G1 X170.84 Y63.804 E.00475
G1 X171.061 Y63.973 E.01037
G1 X171.152 Y64.086 E.00541
G1 X171.254 Y64.303 E.00892
G1 X171.286 Y64.511 E.00782
G1 X171.286 Y170.491 E3.94738
G1 X171.27 Y170.618 E.00475
G1 X171.194 Y170.843 E.00884
G1 X171.027 Y171.061 E.01023
G1 X170.914 Y171.152 E.00541
G1 X170.697 Y171.254 E.00892
G1 X170.489 Y171.286 E.00782
G1 X64.509 Y171.286 E3.94738
G1 X64.382 Y171.27 E.00475
G1 X64.157 Y171.194 E.00884
G1 X63.939 Y171.027 E.01023
G1 X63.848 Y170.914 E.00541
G1 X63.746 Y170.697 E.00892
G1 X63.714 Y170.489 E.00781
G1 X63.714 Y64.512 E3.94724
G1 X63.757 Y64.279 E.00884
G1 X63.804 Y64.16 E.00475
G1 X63.938 Y63.985 E.00821
G1 X64.247 Y64.305 F18000
G1 F1800
G1 X64.384 Y64.196 E.00652
G1 X64.5 Y64.171 E.00442
G1 X170.5 Y64.171 E3.9481
G1 X170.611 Y64.2 E.00426
M73 P2 R138
M73 P2 R138
G1 X170.695 Y64.247 E.00361
G1 X170.804 Y64.384 E.00652
G1 X170.829 Y64.5 E.00442
G1 X170.829 Y170.5 E3.9481
G1 X170.8 Y170.611 E.00426
G1 X170.753 Y170.695 E.00361
G1 X170.616 Y170.804 E.00652
G1 X170.5 Y170.829 E.00442
G1 X64.5 Y170.829 E3.9481
G1 X64.389 Y170.8 E.00426
G1 X64.305 Y170.753 E.00361
G1 X64.196 Y170.616 E.00652
G1 X64.171 Y170.5 E.00442
G1 X64.171 Y64.5 E3.9481
G1 X64.2 Y64.389 E.00426
G1 X64.228 Y64.34 E.00212
G1 E-4.9 F4200
;WIPE_START
G1 F1800
G1 X64.384 Y64.196 E-.44609
G1 X64.5 Y64.171 E-.24943
G1 X65.169 Y64.171 E-1.40447
;WIPE_END
G1 X67.829 Y67.829 Z.6 F18000
G1 Z.2
G1 E7 F4200
G1 F1800
G1 X167.171 Y67.829 E3.70015
G1 X167.171 Y167.171 E3.70015
G1 X67.829 Y167.171 E3.70015
G1 X67.829 Y67.869 E3.69866
G1 X68.333 Y68.319 F18000
G1 F1800
G1 X68.423 Y68.286 E.00355
G1 X166.577 Y68.286 E3.65588
G1 X166.681 Y68.333 E.00426
G1 X166.714 Y68.423 E.00355
G1 X166.714 Y166.577 E3.65588
G1 X166.667 Y166.681 E.00426
G1 X166.577 Y166.714 E.00355
